!! George Gerswhin, "Kickin' The Clouds Away" from
!! "Bumper Book of George Gerswhin,"
!! London: Chappell Music Ltd., 1987; pp.189-193
**kern
*M4/4
*MM[Moderato]
=1
4ee-
4ee-
4ee-
4ee-
=2
8dd-
8b-
8b-
[8b-
2b-]
=3
8.dd-
16dd-
8.cc
16cc
8.b-
16b-
8.a-
16a-
=4
1g
=5
4ee-
4ee-
4ee-
4ee-
=6
8cc-
8a-
8a-
[8a-
2a-]
=7
8.b-
16b-
8.a-
16a-
8.g
16g
4f
=8
1e-
=9
4g
4g
4bn
4an
=10
8g
8g
8g
[8g
2g]
=11
8.a-
16a-
8.g
16a-
4cc
4b-
=12
1a-
=13
8.an
16an
8.g#
16a
4cc#
4bn
=14
8an
8a
8a
[8a
2a]
=15
8.b-
16b-
8.an
16b-
4dd
4cc
=16
1b-
=17
4ee-
4ee-
4ee-
4ee-
=18
8dd-
8b-
8b-
[8b-
2b-]
=19
8cc
8cc
4b-
4a-
4g
=20
2.f
4r
!! Refrain
=21
*M2/2
8b-
4dd-
8b-
2dd-
=22
8b-
4dd-
8b-
2dd-
=23
8b-
4dd-
8b-
4dd-
4dd-
=24
1b-
=25
8e-
4g-
8e-
2g-
=26
8e-
4g-
8e-
4b-
4b-
=27
1e-
=28
4r
4e-
4e-
4e-
=29
8f
4a-
8f
2a-
=30
4r
4a-
4g-
4f
=31
[2g-
6g-]
6a-
6an
=32
[2b-
6b-]
6cc
6dd
=33
[2ee-
6ee-]
6dd
6ee-
=34
2dd
2dd
=35
[1b-
=36
1b-]
=37
8b-
4dd-
8b-
2dd-
=38
8b-
4dd-
8b-
2dd-
=39
8b-
4dd-
8b-
4dd-
4dd-
=40
1b-
=41
8e-
4g-
8e-
2g-
=42
8e-
4g-
8e-
4b-
4b-
=43
[1e-
=44
4e-]
4ee-
4ee-
4ee-
=45
8cc
4ee-
8cc
2ee-
=46
4r
4ee-
4ee-
4ee-
=47
8g
4b-
8g
2b-
=48
4r
4b-
4b-
4b-
=49
8b-
4dd-
8b-
4dd-
8b-
[8dd-
=50
8dd-]
8b-
4dd-
8b-
4ddn
8b-
!! First ending
=51
[1ee-
=52
4ee-]
4r
2r
!! Refrain
=21
*M2/2
8b-
4dd-
8b-
2dd-
=22
8b-
4dd-
8b-
2dd-
=23
8b-
4dd-
8b-
4dd-
4dd-
=24
1b-
=25
8e-
4g-
8e-
2g-
=26
8e-
4g-
8e-
4b-
4b-
=27
1e-
=28
4r
4e-
4e-
4e-
=29
8f
4a-
8f
2a-
=30
4r
4a-
4g-
4f
=31
[2g-
6g-]
6a-
6an
=32
[2b-
6b-]
6cc
6dd
=33
[2ee-
6ee-]
6dd
6ee-
=34
2dd
2dd
=35
[1b-
=36
1b-]
=37
8b-
4dd-
8b-
2dd-
=38
8b-
4dd-
8b-
2dd-
=39
8b-
4dd-
8b-
4dd-
4dd-
=40
1b-
=41
8e-
4g-
8e-
2g-
=42
8e-
4g-
8e-
4b-
4b-
=43
[1e-
=44
4e-]
4ee-
4ee-
4ee-
=45
8cc
4ee-
8cc
2ee-
=46
4r
4ee-
4ee-
4ee-
=47
8g
4b-
8g
2b-
=48
4r
4b-
4b-
4b-
=49
8b-
4dd-
8b-
4dd-
8b-
[8dd-
=50
8dd-]
8b-
4dd-
8b-
4ddn
8b-
!! Second ending
=51
[1ee-
=52
2.ee-]
4r
====
*-
